icons/paypal.svg

<svg width="24" height="24" viewBox="0 0 24 24" fill="none" xmlns="http://www.w3.org/2000/svg">
<path fill-rule="evenodd" clip-rule="evenodd" d="M5.60343 2.6091C5.93071 2.28 6.4228 2 7 2H12.5C14.2719 2 15.7956 2.57987 16.8766 3.68265C17.6428 4.46422 18.1398 5.4607 18.3633 6.58908C20.1892 7.84796 21 9.91083 21 12.0502C21 13.6525 20.2036 15.0428 19.0945 16.0093C17.9885 16.9733 16.5089 17.5753 15 17.5753H13.2479L12.7865 20.3588C12.7846 20.3706 12.7824 20.3824 12.7801 20.3941C12.6871 20.8526 12.4369 21.265 12.0717 21.5588C11.7094 21.8502 11.2569 22.0065 10.7916 21.9998H8.10739C7.88592 22.0024 7.66673 21.9558 7.46552 21.8635C7.26039 21.7695 7.07944 21.6304 6.9358 21.4571C6.79218 21.2838 6.68948 21.0806 6.63493 20.8627C6.58343 20.6569 6.57602 20.4428 6.613 20.2342L6.63361 20.0892H5C4.4228 20.0892 3.93071 19.8092 3.60343 19.4801C3.27581 19.1507 3 18.6583 3 18.0836C3 18.0366 3.00332 17.9896 3.00994 17.943L5.002 3.9208C5.02745 3.38254 5.29204 2.92223 5.60343 2.6091ZM8.66639 19.9998L8.75246 19.3939C8.76006 19.3702 8.76681 19.346 8.77268 19.3214L9.97268 14.2935C9.9781 14.2708 9.98272 14.2479 9.98654 14.2248C9.99931 14.1478 10.0149 14.0927 10.0286 14.0558H12.5C14.0772 14.0558 15.5693 13.273 16.6466 12.1897C17.4095 11.4225 18.0211 10.4477 18.3133 9.38312C18.7681 10.1213 19 11.0322 19 12.0502C19 12.9618 18.5464 13.834 17.7805 14.5016C17.0115 15.1717 15.9911 15.5753 15 15.5753H12.4C11.9108 15.5753 11.4934 15.9292 11.4135 16.4118L10.8188 19.9996C10.8187 19.9997 10.8186 19.9999 10.8185 20L10.8 19.9998H8.66639ZM7.01058 18.0892L8.0199 13.8603C8.09077 13.4606 8.24496 13.0143 8.57782 12.6539C8.9496 12.2513 9.45183 12.0558 10 12.0558H12.5C13.4228 12.0558 14.4307 11.5816 15.2284 10.7794C16.0258 9.97758 16.5 8.96157 16.5 8.02788C16.5 6.73095 16.0952 5.74253 15.4484 5.08269C14.8044 4.42571 13.8281 4 12.5 4H7.04417C7.03718 4.00501 7.02938 4.01153 7.02157 4.01938C7.01366 4.02733 7.007 4.03539 7.00182 4.04274C7.00084 4.04412 6.99996 4.04543 6.99916 4.04665C6.99779 4.07996 6.99475 4.1132 6.99006 4.14623L5.01326 18.0609C5.01585 18.0639 5.01862 18.0669 5.02157 18.0698C5.02938 18.0777 5.03718 18.0842 5.04417 18.0892H7.01058Z" fill="black"/>
</svg>

<svg
  width="24"
  height="24"
  viewBox="0 0 24 24"
  xmlns="http://www.w3.org/2000/svg"
>
  <path
    fill-rule="evenodd"
    clip-rule="evenodd"
    d="M5.603 2.61C5.931 2.28 6.423 2 7 2h5.5c1.772 0 3.296.58 4.377 1.683.766.781 1.263 1.778 1.486 2.906C20.19 7.848 21 9.911 21 12.05c0 1.602-.796 2.993-1.905 3.96-1.107.963-2.586 1.565-4.095 1.565h-1.752l-.461 2.784A2.007 2.007 0 0 1 10.791 22H8.107a1.497 1.497 0 0 1-1.472-1.137 1.506 1.506 0 0 1-.022-.629l.02-.145H5c-.577 0-1.07-.28-1.397-.609-.327-.33-.603-.822-.603-1.396a1 1 0 0 1 .01-.141L5.002 3.921c.025-.538.29-.999.601-1.312zM8.666 20l.086-.606a.99.99 0 0 0 .02-.073l1.2-5.028a.994.994 0 0 0 .015-.068.93.93 0 0 1 .042-.17H12.5c1.577 0 3.07-.782 4.147-1.865.763-.768 1.374-1.742 1.666-2.807.455.738.687 1.65.687 2.667 0 .912-.454 1.784-1.22 2.452-.768.67-1.789 1.073-2.78 1.073h-2.6a1 1 0 0 0-.986.837L10.819 20H8.665zm-1.655-1.91l1.009-4.23c.07-.4.225-.846.558-1.206.372-.403.874-.598 1.422-.598h2.5c.923 0 1.93-.474 2.728-1.277.798-.801 1.272-1.817 1.272-2.751 0-1.297-.405-2.285-1.052-2.945C14.804 4.426 13.828 4 12.5 4H7.044A.182.182 0 0 0 7 4.047a1.001 1.001 0 0 1-.009.1L5.013 18.06a.177.177 0 0 0 .03.028h1.968z"
  />
</svg>
